src/social-angular-outline.svg

<?xml version="1.0" encoding="utf-8"?>
<!-- Generated by IcoMoon.io -->
<!DOCTYPE svg PUBLIC "-//W3C//DTD SVG 1.1//EN" "http://www.w3.org/Graphics/SVG/1.1/DTD/svg11.dtd">
<svg version="1.1" xmlns="http://www.w3.org/2000/svg" xmlns:xlink="http://www.w3.org/1999/xlink" width="512" height="512" viewBox="0 0 512 512">
<path fill="#000000" d="M255.982 64l187.967 69.105-39.17 230.389-148.881 79.949-148.812-80.051-39.055-230.282 187.951-69.11zM255.981 32l-223.981 80 46.12 272 177.88 96 177.75-96 46.25-272-224.019-80z"></path>
<path fill="#000000" d="M344 352h40l-128-280-128 280h40l26.584-56h122.827l26.589 56zM213.573 256l42.419-89.356 42.427 89.356h-84.846z"></path>
</svg>

<?xml version="1.0" encoding="utf-8"?>
<!-- Generator: Adobe Illustrator 16.2.1, SVG Export Plug-In . SVG Version: 6.00 Build 0)  -->
<!DOCTYPE svg PUBLIC "-//W3C//DTD SVG 1.1//EN" "http://www.w3.org/Graphics/SVG/1.1/DTD/svg11.dtd">
<svg version="1.1" id="Layer_1" xmlns="http://www.w3.org/2000/svg" xmlns:xlink="http://www.w3.org/1999/xlink" x="0px" y="0px"
	 width="512px" height="512px" viewBox="0 0 512 512" enable-background="new 0 0 512 512" xml:space="preserve">
<g>
	<path d="M255.982,64l187.967,69.105l-39.17,230.389l-148.881,79.949l-148.812-80.051L68.031,133.11L255.982,64 M255.981,32L32,112
		l46.12,272L256,480l177.75-96L480,112L255.981,32L255.981,32z"/>
	<path d="M344,352h40L256,72L128,352h40l26.584-56h122.827L344,352z M213.573,256l42.419-89.356L298.419,256H213.573z"/>
</g>
</svg>
